src/actions/symbolic/city-symbolic.svg

<svg width="16px" height="16px" version="1.1" viewBox="0 0 16 16" xmlns="http://www.w3.org/2000/svg">
 <path d="m6 0v4h-1v2h-1v9h-1v-9h-3v10h16v-1h-1v-4h-1v-8l-3 3v5h-1v4h-1v-9h-1v-2h-1v-4h-1zm0 5h1v1h-1v-1zm6.5 1c0.27734 0 0.5 0.22266 0.5 0.5s-0.22266 0.5-0.5 0.5-0.5-0.22266-0.5-0.5 0.22266-0.5 0.5-0.5zm-11.5 1h1v1h-1v-1zm4 0h3v1h-3v-1zm7.5 1c0.27734 0 0.5 0.22266 0.5 0.5s-0.22266 0.5-0.5 0.5-0.5-0.22266-0.5-0.5 0.22266-0.5 0.5-0.5zm-11.5 1h1v1h-1v-1zm4 0h3v1h-3v-1zm7.5 1.0078c0.27734 0 0.5 0.22266 0.5 0.5 0 0.27734-0.22266 0.5-0.5 0.5s-0.5-0.22266-0.5-0.5c0-0.27734 0.22266-0.5 0.5-0.5zm-11.5 0.99219h1v1h-1v-1zm4 0h3v1h-3v-1zm6 1h3v1h-3v-1zm-10 1h1v1h-1v-1zm4 0h3v1h-3v-1zm6 1h3v1h-3v-1z" fill="#363636"/>
</svg>

<svg xmlns="http://www.w3.org/2000/svg" width="16" height="16">
    <path fill="#050505" fill-opacity=".7" d="M6 0v4H5v2H4v9H3V6H0v10h16v-1h-1v-4h-1V3l-3 3v5h-1v4H9V6H8V4H7V0H6zm0 5h1v1H6V5zm6.5 1c.277 0 .5.223.5.5s-.223.5-.5.5-.5-.223-.5-.5.223-.5.5-.5zM1 7h1v1H1V7zm4 0h3v1H5V7zm7.5 1c.277 0 .5.223.5.5s-.223.5-.5.5-.5-.223-.5-.5.223-.5.5-.5zM1 9h1v1H1V9zm4 0h3v1H5V9zm7.5 1.008c.277 0 .5.222.5.5 0 .277-.223.5-.5.5s-.5-.223-.5-.5c0-.278.223-.5.5-.5zM1 11h1v1H1v-1zm4 0h3v1H5v-1zm6 1h3v1h-3v-1zM1 13h1v1H1v-1zm4 0h3v1H5v-1zm6 1h3v1h-3v-1z"/>
</svg>
